X:0261
M:C|
L:1/8
Q:1/2=100
K:G
d/c/|BGGB AFFd|BGGB dBgd|BGGB AFFe|dBcA G/G/G G:|
g   |gdde dgBc|dBgB d2B2|gdde dgBc|dgdB G/G/G G:|

